X:179
T:Steirer
R:Steirer
C:traditionell
A:Bad Ischl, Salzkammergut
B:"Pfeifermusik aus Bad Ischl", Lois Blamberger, 3. Auflage, Bad Ischl 1990
S:im buch mit der Angabe: aus der Sammlung vom Blamberger Lois
N:im buch in D, nr. 10/2
Z:abc transcription Simon Wascher
M:3/4
L:1/8
K:C % Transposed from D
V:1
(GA) |\
(Gg eG ce | dG df d)z | (Gf dG df | ec eg e)z |\
(Gg eG ce | dGdfd)z | (GfdGBd | c4 :|
V:2
(EF) |\
(Ee cE Gc | BD Bd B)z | (DGB DGB | cGce c)z |\
(Ee cE Gc | BD BdB)z | (DGBcdf | e4 :|
